!!!COM: Bach, Johann Sebastian
!!!OTA: Das wohltemperirte Clavier
!!!OPR: Das wohltemperierte Klavier
!!!OTL: Fuga 5, Vol. 1
!!!XEN: The Well-Tempered Clavier, Volume 1, Fugue 5.
!!!ONB: D major, 4-part
!!!SCT: BWV 850b
!!!YEC: Copyright 1994, David Huron
!!!YEM: Rights to all derivative electronic formats reserved.
**kern	**kern	**kern	**kern
*staff2	*staff2	*staff1	*staff1
*clefF4	*clefF4	*clefG2	*clefG2
*k[f#c#]	*k[f#c#]	*k[f#c#]	*k[f#c#]
*M4/4	*M4/4	*M4/4	*M4/4
*D:	*D:	*D:	*D:
*MM60	*MM60	*MM60	*MM60
=1	=1	=1	=1
4r	1r	1r	1r
32D	.	.	.
32E	.	.	.
32F#	.	.	.
32G	.	.	.
32F#	.	.	.
32E	.	.	.
32F#	.	.	.
32D	.	.	.
8.B	.	.	.
16B	.	.	.
8.A	.	.	.
16G	.	.	.
=2	=2	=2	=2
8.F#	4r	1r	1r
16G	.	.	.
8.F#	32A	.	.
.	32B	.	.
.	32c#	.	.
.	32d	.	.
.	32c#	.	.
.	32B	.	.
16E	32c#	.	.
.	32A	.	.
4D	8.f#	.	.
.	16f#	.	.
4E	8.e	.	.
.	16d	.	.
=3	=3	=3	=3
[8AA	4c#	1r	1r
32AA]	.	.	.
32E	.	.	.
32F#	.	.	.
32G	.	.	.
2A	8.f#	.	.
.	16f#	.	.
.	[8B	.	.
.	32B]	.	.
.	32B	.	.
.	32c#	.	.
.	32d	.	.
[4G	16e	.	.
.	16d	.	.
.	16e	.	.
.	16c#	.	.
=4	=4	=4	=4
8.G]	4A	4r	1r
32F#	.	.	.
32E	.	.	.
8.F#	[4d	32d	.
.	.	32e	.
.	.	32f#	.
.	.	32g	.
.	.	32f#	.
.	.	32e	.
16D	.	32f#	.
.	.	32d	.
8.G	4d]	8.b	.
16E	.	16b	.
8.A	4c#	8.a	.
16AA	.	16g	.
=5	=5	=5	=5
8.D	4d	8.f#	4r
16E	.	16g#	.
8.F#	4c#	[4a	32a
.	.	.	32b
.	.	.	32cc#
.	.	.	32dd
.	.	.	32cc#
.	.	.	32b
16E	.	.	32cc#
.	.	.	32a
8.D	2B	4a]	8.ff#
16BB	.	.	16ff#
4E	.	4g#	8.ee
.	.	.	16dd
=6	=6	=6	=6
4AA	4A	4a	[8cc#
.	.	.	32cc#]
.	.	.	32ee
.	.	.	32ff#
.	.	.	32gg
4r	32f#	4cc#	8.aa
.	32g	.	.
.	32a	.	.
.	32b	.	.
.	32a	.	.
.	32g	.	.
.	32a	.	16aa
.	32f#	.	.
2r	4b	4dd	[8aa
.	.	.	32aa]
.	.	.	32dd
.	.	.	32ee
.	.	.	32ff#
.	32e	4dd	8.gg
.	32f#	.	.
.	32g	.	.
.	32a	.	.
.	32g	.	.
.	32f#	.	.
.	32g	.	16gg
.	32e	.	.
=7	=7	=7	=7
4r	4a	[8cc#	4gg
.	.	32cc#]	.
.	.	32ee	.
.	.	32dd	.
.	.	32cc#	.
32DD	8.a	8.dd	8.ff#
32EE	.	.	.
32FF#	.	.	.
32GG	.	.	.
32FF#	.	.	.
32EE	.	.	.
32FF#	16g	16cc#	16ee
32DD	.	.	.
8.BB	8.f#	4b	8.dd
16BB	16g	.	16ee
8.AA	4a	4e	8.cc#
16GG	.	.	16cc#
=8	=8	=8	=8
[8FF#	4d	4a	4cc#
32FF#]	.	.	.
32D	.	.	.
32E	.	.	.
32F#	.	.	.
8.G	4d	[4b	32b
.	.	.	32cc#
.	.	.	32dd
.	.	.	32ee
.	.	.	32dd
.	.	.	32cc#
16F#	.	.	32dd
.	.	.	32b
8.E	2c#	4b]	8.gg
16C#	.	.	16gg
4F#	.	4a#	8.ff#
.	.	.	16ee
=9	=9	=9	=9
32BB	4B	4b	4dd
32C#	.	.	.
32D	.	.	.
32E	.	.	.
32D	.	.	.
32C#	.	.	.
32D	.	.	.
32BB	.	.	.
8G#	4r	4r	16bb
.	.	.	16aa
8r	.	.	16bb
.	.	.	16gg#
2r	8.b	8.dd	16gg#
.	.	.	16ff#
.	.	.	16gg#
.	16g#	16b	16ee
.	8.g#	8.b	16ee
.	.	.	16dd
.	.	.	16ee
.	16e	16a	16cc#
=10	=10	=10	=10
32AA	4e	4a	4cc#
32BB	.	.	.
32C#	.	.	.
32D	.	.	.
32C#	.	.	.
32BB	.	.	.
32C#	.	.	.
32AA	.	.	.
8F#	4r	4r	16aa
.	.	.	16ggn
8r	.	.	16aa
.	.	.	16ff#
2r	8.a	8.ccn	16ff#
.	.	.	16ee
.	.	.	16ff#
.	16f#	16a	16dd
.	8.f#	8.a	16dd
.	.	.	16ccn
.	.	.	16dd
.	16d	16g	16b
=11	=11	=11	=11
32GG	4d	4g	4b
32AA	.	.	.
32BB	.	.	.
32Cn	.	.	.
32BB	.	.	.
32AA	.	.	.
32BB	.	.	.
32GG	.	.	.
8.E	4r	4r	32g
.	.	.	32a
.	.	.	32b
.	.	.	32ccn
.	.	.	32b
.	.	.	32a
16D	.	.	32b
.	.	.	32g
4C	2r	2r	8.ee
.	.	.	16ee
4D	.	.	8.dd
.	.	.	16cc
=12	=12	=12	=12
8.G	1r	4r	8.b
16A	.	.	16cc#
8.B	.	32d	2dd
.	.	32e	.
.	.	32f#	.
.	.	32g	.
.	.	32f#	.
.	.	32e	.
16A	.	32f#	.
.	.	32d	.
8.G	.	8.b	.
16E	.	16b	.
8.A	.	8.a	4cc#
16AA	.	16g	.
=13	=13	=13	=13
32BB	1r	8.f#	4dd
32C#	.	.	.
32D	.	.	.
32E	.	.	.
32D	.	.	.
32C#	.	.	.
32D	.	16a	.
32BB	.	.	.
8.B	.	[4dd	32dd
.	.	.	32ee
.	.	.	32ff#
.	.	.	32gg
.	.	.	32ff#
.	.	.	32ee
16A	.	.	32ff#
.	.	.	32dd
8.G	.	4dd]	8.bb
16E	.	.	16bb
8.A	.	4ccn	8.aa
16AA	.	.	16gg
=14	=14	=14	=14
4D	4r	4ccn	[8ff#
.	.	.	32ff#]
.	.	.	32dd
.	.	.	32ee
.	.	.	32ff#
4E	32G	4b	8.gg
.	32A	.	.
.	32B	.	.
.	32cn	.	.
.	32B	.	.
.	32A	.	.
.	32B	.	16gg
.	32G	.	.
8.cn	8.e	2a	8.gg
16A	16e	.	16aa
8.d	8.d	.	8.ff#
16D	16c	.	16ff#
=15	=15	=15	=15
4G	4B	4g	8.ff#
.	.	.	32ee
.	.	.	32dd#
32EE	4g	4b	[4ee
32FF#	.	.	.
32GG	.	.	.
32AA	.	.	.
32GG	.	.	.
32FF#	.	.	.
32GG	.	.	.
32EE	.	.	.
8.Cn	[2f#	[2a	8.ee]
16C	.	.	16dd#
8.BB	.	.	8.ee
16AA	.	.	16ff#
=16	=16	=16	=16
8.GG	4f#]	4a]	8.b
16FF#	.	.	32ccn
.	.	.	32a
8.GG	8.e	8.g	8.b
16AA	16F#	16e	16cc
2BB	8.G	4e	4g
.	16A	.	.
.	8.B	4d#	4f#
.	16A	.	.
=17	=17	=17	=17
4E	4G	4e	32e
.	.	.	32f#
.	.	.	32g
.	.	.	32a
.	.	.	32g
.	.	.	32f#
.	.	.	32g
.	.	.	32e
16B	4r	4r	8gg
16A	.	.	.
16B	.	.	8r
16G	.	.	.
16G	8.B	8.e	2r
16F#	.	.	.
16G	.	.	.
16E	16G	16c#	.
16E	8.G	8.c#	.
16D	.	.	.
16E	.	.	.
16C#	16E	16A	.
=18	=18	=18	=18
4C#	4E	4A	32a
.	.	.	32b
.	.	.	32cc#
.	.	.	32dd
.	.	.	32cc#
.	.	.	32b
.	.	.	32cc#
.	.	.	32a
16A	4r	4r	8ff#
16G	.	.	.
16A	.	.	8r
16F#	.	.	.
16F#	8.A	8.d	2r
16E	.	.	.
16F#	.	.	.
16D	16F#	16B	.
16D	8.F#	8.B	.
16C#	.	.	.
16D	.	.	.
16BB	16D	16G	.
=19	=19	=19	=19
4BB	4D	4G	32g
.	.	.	32a
.	.	.	32b
.	.	.	32ccn
.	.	.	32b
.	.	.	32a
.	.	.	32b
.	.	.	32g
16G	4r	4r	8ee
16F#	.	.	.
16G	.	.	8r
16E	.	.	.
16E	8.G	8.c#	2r
16D	.	.	.
16E	.	.	.
16C#	16E	16A	.
16C#	8.E	8.A	.
16BB	.	.	.
16C#	.	.	.
16AA	16C#	16F#	.
=20	=20	=20	=20
4AA	4C#	4F#	32f#
.	.	.	32g
.	.	.	32a
.	.	.	32b
.	.	.	32a
.	.	.	32g
.	.	.	32a
.	.	.	32f#
4r	4r	32B	8.dd
.	.	32c#	.
.	.	32d	.
.	.	32e	.
.	.	32d	.
.	.	32c#	.
.	.	32d	16dd
.	.	32B	.
32E	4r	2g	8.dd
32F#	.	.	.
32G	.	.	.
32A	.	.	.
32G	.	.	.
32F#	.	.	.
32G	.	.	16ee
32E	.	.	.
4A	32A	.	8.cc#M
.	32B	.	.
.	32c#	.	.
.	32d	.	.
.	32c#	.	.
.	32B	.	.
.	32c#	.	32dd
.	32A	.	32ee
=21	=21	=21	=21
32D	4d	4f#	4ff#
32E	.	.	.
32F#	.	.	.
32G	.	.	.
32F#	.	.	.
32E	.	.	.
32F#	.	.	.
32D	.	.	.
8G	4r	4r	16bb
.	.	.	16aa
8r	.	.	16bb
.	.	.	16gg
2r	8.b	8.dd	16gg
.	.	.	16ff#
.	.	.	16gg
.	16g	16b	16ee
.	8.g	8.b	16ee
.	.	.	16dd
.	.	.	16ee
.	16e	16a	16cc#
=22	=22	=22	=22
4GG 4G	4e	4a	4cc#
32F#	8.f#	8.a	8.dd
32G	.	.	.
32A	.	.	.
32G	.	.	.
32F#	.	.	.
32E	.	.	.
32D	16f#	16a	16dd
32C#	.	.	.
32BB	8.f#	8.b	8.dd
32C#	.	.	.
32D	.	.	.
32C#	.	.	.
32BB	.	.	.
32AA	.	.	.
32BB	16g	16b	16ee
32GG	.	.	.
8.AA	4e	4a	8.cc#T
16AA	.	.	16dd
=23	=23	=23	=23
[8DD	4f#	4a	4dd
32DD]	.	.	.
32D	.	.	.
32E	.	.	.
32F#	.	.	.
4G	4r	4r	32b
.	.	.	32cc#
.	.	.	32dd
.	.	.	32ee
.	.	.	32dd
.	.	.	32cc#
.	.	.	32dd
.	.	.	32b
32C#	4e	4b	4ee
32D	.	.	.
32E	.	.	.
32F#	.	.	.
32E	.	.	.
32D	.	.	.
32E	.	.	.
32C#	.	.	.
4F#	4r	4r	32a
.	.	.	32b
.	.	.	32cc#
.	.	.	32dd
.	.	.	32cc#
.	.	.	32b
.	.	.	32cc#
.	.	.	32a
=24	=24	=24	=24
32BB	4d	4a	4dd
32C#	.	.	.
32D	.	.	.
32E	.	.	.
32D	.	.	.
32C#	.	.	.
32D	.	.	.
32BB	.	.	.
32E	4r	4r	32g
32F#	.	.	32a
32G	.	.	32b
32A	.	.	32ccn
32G	.	.	32b
32F#	.	.	32a
32G	.	.	32b
32E	.	.	32g
32A	2r	2r	32cc#
32B	.	.	32dd
32c#	.	.	32ee
32d	.	.	32ff#
32c#	.	.	32ee
32B	.	.	32dd
32c#	.	.	32ee
32A	.	.	32cc#
32d	.	.	32ff#
32e	.	.	32gg
32f#	.	.	32aa
32g	.	.	32bb
32f#	.	.	32aa
32e	.	.	32gg
32f#	.	.	32aa
32d	.	.	32ff#
=25	=25	=25	=25
8.g	8.r	8.r	8.bb
16G	16e	16a	16cc#
8.F#	8.f#	8.a	8.dd
16E	16g	16cc#	16ee
8.D	8.a	8.dd	8.ff#
16Cn	16A	16d	16f#
8.BB	8.B	8.d	8.g
16AA	16cn	16f#	16a
=26	=26	=26	=26
8.GG	8.d	8.g	8.b
16FF#	16g	16d	16b
8.EE	8.g	8.e	8.cc#
16DD	16a	16f#	16dd
2AA	4A	4d	4f#
.	4G	4c#	4e
=27	=27	=27	=27
1DD;	1F#;	1A;	1d;
==	==	==	==
*-	*-	*-	*-
!!!CDT: 1685/3/-1750/7/28
!!!OCY: Deutschland
!!!PPP: Coethen; Cothen; Co2then
!!!ODT: <1722//
!!!PDT: 1722
!!!AFR: fuga; fugue
!!!AST: polyphony
!!!AMT: simple quadruple
!!!SCA: Bach-Werke-Verzeichnis
!!!YOR: Bach Gesellschaft
!!!SMS: British Library, various
!!!AIN: cemba; clavi
!!!EEV: 1.0
!!!RDT: 1986 November 16
!!!YER: 1994 August 10
!!!EFL: 5/48
!!!VTS: 575634495
